usr/share/icons/biglinux-icons-material/scalable/mimetypes/application-pgp.svg

<svg width="24" height="24" viewBox="0 0 24 24" fill="none" xmlns="http://www.w3.org/2000/svg">
<rect x="1" y="1" width="22" height="22" rx="6.6" fill="url(#paint0_radial_6_13)"/>
<path d="M12.25 5C9.66467 5 7.58333 7.08133 7.58333 9.66667V12H7V15.3174L7.23683 15.0083C7.57633 14.5527 8.47992 13.9017 9.1875 13.6222C9.56025 13.4752 10.4551 13.3131 11.466 13.2028C12.9891 13.0325 15.8667 13.1667 16.9167 12V9.66667C16.9167 7.08133 14.8353 5 12.25 5ZM12.6327 5.56525C12.8543 5.57808 13.0707 5.60375 13.2889 5.65625C14.0735 5.84467 14.1616 6.02608 13.3986 5.875C12.1969 5.637 10.6021 6.17133 9.625 7.15075C9.33333 7.44417 8.96408 7.92892 8.80483 8.22642C8.47583 8.84008 8.52775 8.44458 8.87775 7.69792C9.51767 6.33233 11.0845 5.47483 12.6327 5.56525ZM12.25 7.33333C13.5427 7.33333 14.5833 8.374 14.5833 9.66667V12H9.91667V9.66667C9.91667 8.374 10.9573 7.33333 12.25 7.33333ZM17.5 12.6743L16.8799 13.1847C16.5433 13.4717 16.0166 13.8637 15.6958 14.0597C15.0389 14.4611 13.482 15.0257 13.0153 15.0257C12.8403 15.0257 12.7377 15.0683 12.7785 15.1354C12.8567 15.2614 13.7882 15.2048 14.7653 15.0077C15.0862 14.9435 15.8311 14.6518 16.4243 14.3514L17.5 13.8048V12.6743ZM17.5 13.932L17.1716 14.3882C16.0837 15.8879 14.3115 16.7192 11.8487 16.8673C10.2043 16.9659 10.8062 17.1532 12.7785 17.159C14.1143 17.1608 14.4159 17.1199 15.2215 16.8487C15.7255 16.6795 16.1438 16.55 16.1694 16.5757C16.261 16.6673 15.2752 17.4833 14.7292 17.7604C13.6832 18.2912 12.971 18.44 11.0833 18.5257C9.74225 18.587 9.19158 18.6564 8.932 18.7999C8.60183 18.9813 8.82 18.9942 13.034 19H17.5V13.932Z" fill="#0093DD"/>
<defs>
<radialGradient id="paint0_radial_6_13" cx="0" cy="0" r="1" gradientUnits="userSpaceOnUse" gradientTransform="translate(17.5 1) rotate(116.565) scale(24.5967)">
<stop stop-color="#F4F4F4"/>
<stop offset="1" stop-color="#BBBBBB"/>
</radialGradient>
</defs>
</svg>

<svg xmlns="http://www.w3.org/2000/svg" width="24" height="24" fill="none"><rect width="22" height="22" x="1" y="1" fill="url(#a)" rx="6.6"/><path fill="#0093DD" d="M12.25 5a4.656 4.656 0 0 0-4.667 4.667V12H7v3.317l.237-.309c.34-.455 1.243-1.106 1.95-1.386.373-.147 1.268-.309 2.279-.42 1.523-.17 4.4-.035 5.45-1.202V9.667A4.657 4.657 0 0 0 12.25 5Zm.383.565c.221.013.438.039.656.091.784.189.873.37.11.219-1.202-.238-2.797.296-3.774 1.276-.292.293-.66.778-.82 1.075-.33.614-.277.219.073-.528.64-1.366 2.207-2.223 3.755-2.133Zm-.383 1.768a2.328 2.328 0 0 1 2.333 2.334V12H9.917V9.667a2.328 2.328 0 0 1 2.333-2.334Zm5.25 5.341-.62.51c-.337.288-.863.68-1.184.876-.657.401-2.214.966-2.68.966-.176 0-.278.042-.238.11.079.125 1.01.069 1.987-.128.321-.064 1.066-.356 1.66-.657l1.075-.546v-1.13Zm0 1.258-.328.456c-1.088 1.5-2.86 2.331-5.323 2.48-1.645.098-1.043.285.93.291 1.335.002 1.637-.04 2.443-.31.504-.17.922-.299.947-.273.092.091-.894.907-1.44 1.184-1.046.531-1.758.68-3.646.766-1.34.061-1.891.13-2.151.274-.33.181-.112.194 4.102.2H17.5v-5.068Z"/><defs><radialGradient id="a" cx="0" cy="0" r="1" gradientTransform="rotate(116.565 8.441 5.908) scale(24.5967)" gradientUnits="userSpaceOnUse"><stop stop-color="#F4F4F4"/><stop offset="1" stop-color="#BBB"/></radialGradient></defs></svg>
